X:1
T:Turkey in the Straw
L:1/8
M:4/4
I:linebreak $
K:G
V:1 treble nm="Voice" snm="Voice"
V:1
 BA |"G" GFGA GDB,C | DEDB, D2 GA | B2 B2 BAGA | B2 A2 A2 BA |$"G" GFGA GDB,D3/2 | DEDB, D2 GA | %7
 B2 d2 dBGA |1 B2 A2 G2 :|2 B2 A2 G4 |:$"G" B d2 B d2 dd | B d2 B d2 |"C" c e2 c e2 ee | %13
 c e2 c e2 ef |$ g2 g2 d2 d2 | B2 B2 A2 GA | B2 d2 dBGA | B2 A2 G4 :| %18
